X:98
T:La Guenille                                                                                       
M:4/4                                                                                               
L:1/8                                                                                               
K:D                                                                                                 
A|:Adde fdfd|cdef geeA|Adde fdfd|1 cdec dd (3BcB A :|2 cdec defg||                                  
|:a3g f2fd|cdef gecA|a2ag fdfd|1 Acec defg:|2 Acec d2 ef ||                                         
g3 e f3 d|edcB Acef|g2 ge fagf|1 egfd d2 ef :|2 egfe d3 A ||
